svgs/google_photos.svg

<svg width="24" height="24" viewBox="0 0 24 24" fill="none" xmlns="http://www.w3.org/2000/svg">
<path d="M7 7C9.76 7 12 9.05236 12 11.5812V12H2.45714C2.20571 12 2 11.8115 2 11.5812C2 9.05236 4.24 7 7 7V7Z" fill="black"/>
<path d="M17 7C17 9.76 14.9476 12 12.4188 12H12V2.45714C12 2.20571 12.1885 2 12.4188 2C14.9476 2 17 4.24 17 7V7Z" fill="black"/>
<path d="M17 17C14.24 17 12 14.9476 12 12.4188V12H21.5429C21.7943 12 22 12.1885 22 12.4188C22 14.9476 19.76 17 17 17Z" fill="black"/>
<path d="M7 17C7 14.24 9.05236 12 11.5812 12H12V21.5429C12 21.7943 11.8115 22 11.5812 22C9.05236 22 7 19.76 7 17V17Z" fill="black"/>
</svg>

<svg xmlns="http://www.w3.org/2000/svg" width="24" height="24" fill="none" viewBox="0 0 24 24"><path fill="#000" d="M7 7c2.76 0 5 2.052 5 4.581V12H2.457C2.206 12 2 11.812 2 11.581 2 9.052 4.24 7 7 7m10 0c0 2.76-2.052 5-4.581 5H12V2.457c0-.251.188-.457.419-.457C14.948 2 17 4.24 17 7m0 10c-2.76 0-5-2.052-5-4.581V12h9.543c.251 0 .457.188.457.419C22 14.948 19.76 17 17 17M7 17c0-2.76 2.052-5 4.581-5H12v9.543c0 .251-.188.457-.419.457C9.052 22 7 19.76 7 17"/></svg>
